X: 1
T: Border Reel    [G]
P: Longways for as many as will
O: 1731
%R: jig
B: "Caledonian Country Dances" printed by John Walsh for John Johnson, London
S: 1: CCDTB http://imslp.org/wiki/Caledonian_Country_Dances_with_a_Thorough_Bass_(Various) p.43
Z: 2013 John Chambers <jc:trillian.mit.edu>
N: "Each Strain twice." Repeats corrected to match this instruction.
M: 6/8
L: 1/8
K: G
% - - - - - - - - - - - - - - - - - - - - - - - - -
V: 1
|:\
"G"BGG dGG | BGG d2B |\
[1,3 "Am"cAA eAA | cAA "(D7)"e2d :|\
[2,4 "C"c2d efg | "G"dcB "D7"TA2G :|
|:\
"G"BGG "(C)"e/f/g/f/e/d/ | "G"BGG d2B |\
[1,3 "Am"c2A "(Em)"e/f/g/f/e/d/ | "Am"cAA "(D7)"e2d :|\
[2,4 "C"c2d efg | "G"dcB "D7"A2G :|
% - - - - - - - - - - - - - - - - - - - - - - - - -
% V: 2 clef=bass middle=d
% |:\
% g3 G3 | g3 g3 | a3 A3 | a3 A2f |\
% g3 G3 | g3 G3 | e2d c2B | BAG d2G :|
% |:\
% g3 G3 | g3 G3 | a3 A3 | a3 a2f |\
% g3 G3 | g3 G3 | e2d c2B | BAG d2G :|
% % - - - - - - - - Dance description - - - - - - - -
% %%begintext align
% %% The two 1st Men whole figure round their Partners,
% %% then the 1st Man lead his Partner thro' the 2d Cu.
% %% the two 1st We. figure round the Men and the Wo lead her Partner thro :|
% %% the 1st Man sett to the 2d Wo and turn single.
% %% the 1st Wo. sett to the 2d Man, and 1st Cu. cast off.
% %% the 1st Man takes his Partner by both hands and draws her quite round the 3d Cu. and round the 2d Cu. :|
% %%endtext
